assets/svg/1F421.svg

<svg xmlns="http://www.w3.org/2000/svg" viewBox="0 0 64 64" enable-background="new 0 0 64 64"><g fill="#c8c92d"><path d="m15.339 43.38c6.982 7.823-4.763 17.748-5.542 16.06-2.425-5.298 4.27-17.49 5.542-16.06"/><path d="m22.897 45.734c6.984 7.824-4.763 17.748-5.541 16.06-2.428-5.298 4.268-17.488 5.541-16.06"/><path d="m26.332 47.03c9.322 4.796 1.921 18.272.588 16.976-4.165-4.074-2.291-17.857-.588-16.976"/><path d="m32.741 47.03c9.323 4.796 1.919 18.272.586 16.976-4.162-4.074-2.29-17.857-.586-16.976"/><path d="m36.652 47.759c10.438.999 8.558 16.261 6.838 15.55-5.377-2.242-8.745-15.736-6.838-15.55"/><path d="m46.35 42.22c9.96-3.275 14.367 11.455 12.507 11.494-5.826.106-14.33-10.898-12.507-11.494"/></g><path fill="#74543f" d="m56.57 62.56c.868-14.676-12.96-12.574-12.614-10.136 1.072 7.623 12.456 12.817 12.614 10.136"/><g fill="#674a3a"><path d="m55.13 33.461c9.671-.28 9.823 14.195 8.16 13.728-5.196-1.464-9.926-13.68-8.16-13.728"/><path d="m55.13 33.449c9.671.282 9.823-14.191 8.16-13.724-5.196 1.464-9.926 13.678-8.16 13.724"/></g><path fill="#d5de2b" d="m57.684 39.05c.195-1.248.328-2.516.328-3.816 0-14.286-12.269-25.867-27.414-25.867-13.536 0-24.751 9.269-26.977 21.444-.61.326-1.234.652-1.85 1.017-1.364.81-1.828 2.442-1.475 3.938.415 1.714 1.145 2.881 2.699 3.803.235.14.45.304.683.454.004.025-.123.561-.209 1.323l0 0v.002c-.036.29-.059.618-.071.957-.004.101-.004.198-.004.301-.004.257.004.513.02.777.012.129.021.249.04.378.027.258.081.507.142.756.028.114.045.229.083.34.112.348.249.681.448.976.918 1.37 2.172 2.507 3.564 3.542 4.893 7.05 13.307 11.727 22.907 11.727.913 0 1.803-.045 2.684-.128.304-.027.6-.079.9-.116.568-.071 1.141-.143 1.704-.247.361-.065.71-.154 1.067-.235.48-.108.964-.215 1.432-.348.39-.108.767-.234 1.142-.357.425-.138.845-.276 1.258-.432.403-.152.792-.318 1.185-.486.363-.158.725-.319 1.086-.493.413-.199.817-.407 1.217-.626.308-.166.606-.34.904-.518.427-.255.847-.516 1.258-.79.241-.158.466-.325.697-.491.448-.322.891-.646 1.318-.993.145-.117.278-.241.423-.361 4.648-3.935 7.851-9.33 8.811-15.431l0 0 0 0"/><path fill="#c8c92d" d="m10.853 41.31c-.031 2.17-.823 4.175-3.094 5.667-.578.38-1.187.682-1.809.944.545.507 1.127.991 1.742 1.447 4.893 7.05 13.307 11.727 22.907 11.727.913 0 1.803-.045 2.684-.128.304-.027.6-.079.9-.116.568-.071 1.141-.143 1.704-.247.361-.065.71-.154 1.067-.235.48-.108.964-.215 1.432-.348.39-.108.767-.234 1.142-.357.425-.138.845-.276 1.258-.432.403-.152.792-.318 1.185-.486.363-.158.725-.319 1.086-.493.413-.199.817-.407 1.217-.626.308-.166.606-.34.904-.518.427-.255.847-.516 1.258-.79.241-.158.466-.325.697-.491.448-.322.891-.646 1.318-.993.145-.117.278-.241.423-.361 4.648-3.932 7.851-9.326 8.811-15.428l0 0c.063-.404.108-.813.154-1.22-7.572 7.391-25.943 14.252-46.986 3.484"/><path fill="#74543f" d="m28.746 26.593c-9.582-15.923 14.14-29.342 14.932-26.14 2.488 10.02-13.178 29.05-14.932 26.14"/><g fill="#674a3a"><path d="m17.472 24.15c-10.472-.596-9.182-15.919-7.439-15.274 5.464 2.03 9.352 15.384 7.439 15.274"/><path d="m11.783 31.2c-10.47-.596-9.182-15.919-7.436-15.273 5.459 2.03 9.349 15.384 7.436 15.273"/><path d="m22.765 21.546c-10.317-1.872-7.165-16.921-5.515-16.07 5.176 2.684 7.401 16.411 5.515 16.07"/><path d="m27.14 20.63c-9.423-4.597-2.316-18.231-.958-16.96 4.255 3.983 2.684 17.801.958 16.96"/></g><g fill="#74543f"><path d="m42.03 23.402c-5.926-8.648 6.986-16.999 7.539-15.222 1.734 5.563-6.455 16.804-7.539 15.222"/><path d="m47.16 28.323c-5.928-8.649 6.984-16.999 7.541-15.222 1.732 5.563-6.455 16.804-7.541 15.222"/><path d="m50.34 34.09c-5.924-8.648 6.988-16.999 7.541-15.222 1.731 5.562-6.455 16.804-7.541 15.222"/><path d="m30.64 8.096c-13.739 0-25.12 9.721-27.379 22.49-.031.016-.061.036-.095.055 2.042 1.201 3.764 2.841 5.28 4.75 2.527-.288 5.03-.464 7.596-.64 8.674-.59 17.347-.813 26.03-.396 5.32.255 10.825.516 16.377.859-.004-14.979-12.453-27.12-27.809-27.12"/></g><g fill="#674a3a"><path d="m15.459 30.09c-1.751-.442 8.72-10.378 13.229-21.912-12.848.871-23.275 10.249-25.428 22.406-.031.016-.061.036-.095.055 2.042 1.201 3.764 2.841 5.28 4.75 2.527-.288 5.03-.464 7.596-.64 8.674-.59 17.347-.813 26.03-.396 5.32.255 10.825.516 16.377.859 0-3.669-.76-7.162-2.112-10.353-23.97 3.715-29.06 8.229-40.877 5.231"/><path d="m52.907 44.23c-6.992-17.341-21.829-12.44-20.453-10.398 4.313 6.378 21.454 12.886 20.453 10.398"/></g><path fill="#fff" d="m31.497 24.02c.105-.697.176-1.414.176-2.158 0-5.377-2.904-9.73-6.5-9.73-3.588 0-6.5 4.354-6.5 9.73 0 2.036.452 3.89 1.171 5.442 3.727-1.571 7.623-2.629 11.653-3.284"/><path fill="#25333a" d="m22.899 26.432c1.912-.652 3.858-1.185 5.839-1.607.401-.778.642-1.688.642-2.672 0-2.815-1.886-5.098-4.208-5.098-2.322 0-4.204 2.283-4.204 5.098 0 1.798.775 3.37 1.931 4.279"/><path fill="#bdba32" d="m3.776 38.13c-.314-.16-.902-.452-1.258-.222-.344.222.282.668.444.749 1.06.537 2.758 2.491 1.325 3.463-.483.328 1.199 1.313 1.706.972 2.121-1.44-.793-4.239-2.217-4.962"/><g fill="#c8aea0"><path d="m49.02 18.383c0 3.144-2.844 5.687-6.36 5.687-3.521 0-6.374-2.543-6.374-5.687 0-3.14 2.854-5.685 6.374-5.685 3.517 0 6.36 2.546 6.36 5.685"/><path d="m53.46 24.925c0 1.572-1.424 2.843-3.179 2.843-1.762 0-3.186-1.271-3.186-2.843 0-1.57 1.424-2.841 3.186-2.841 1.755-.0001 3.179 1.271 3.179 2.841"/></g></svg>

<?xml version="1.0" encoding="UTF-8" standalone="no"?>
<!-- Generator: Adobe Illustrator 16.0.0, SVG Export Plug-In . SVG Version: 6.00 Build 0)  -->

<svg
   xmlns:dc="http://purl.org/dc/elements/1.1/"
   xmlns:cc="http://creativecommons.org/ns#"
   xmlns:rdf="http://www.w3.org/1999/02/22-rdf-syntax-ns#"
   xmlns:svg="http://www.w3.org/2000/svg"
   xmlns="http://www.w3.org/2000/svg"
   xmlns:sodipodi="http://sodipodi.sourceforge.net/DTD/sodipodi-0.dtd"
   xmlns:inkscape="http://www.inkscape.org/namespaces/inkscape"
   version="1.1"
   id="Layer_1"
   x="0px"
   y="0px"
   width="64px"
   height="64px"
   viewBox="0 0 64 64"
   enable-background="new 0 0 64 64"
   xml:space="preserve"
   inkscape:version="0.48.5 r10040"
   sodipodi:docname="1F421.svg"
   inkscape:export-filename="D:\TESTINGEMOJI\SVGTEST\1F421.png"
   inkscape:export-xdpi="90"
   inkscape:export-ydpi="90"><metadata
   id="metadata4465"><rdf:RDF><cc:Work
       rdf:about=""><dc:format>image/svg+xml</dc:format><dc:type
         rdf:resource="http://purl.org/dc/dcmitype/StillImage" /><dc:title></dc:title></cc:Work></rdf:RDF></metadata><defs
   id="defs4463" /><sodipodi:namedview
   pagecolor="#ffffff"
   bordercolor="#666666"
   borderopacity="1"
   objecttolerance="10"
   gridtolerance="10"
   guidetolerance="10"
   inkscape:pageopacity="0"
   inkscape:pageshadow="2"
   inkscape:window-width="640"
   inkscape:window-height="480"
   id="namedview4461"
   showgrid="false"
   inkscape:zoom="3.6875"
   inkscape:cx="32"
   inkscape:cy="32"
   inkscape:window-x="365"
   inkscape:window-y="311"
   inkscape:window-maximized="0"
   inkscape:current-layer="Layer_1" />
<g
   id="g4405">
	<path
   fill="#C8C92D"
   d="M15.339,43.377c6.982,7.823-4.763,17.748-5.542,16.058C7.372,54.137,14.067,41.945,15.339,43.377z"
   id="path4407" />
	<path
   fill="#C8C92D"
   d="M22.897,45.734c6.984,7.824-4.763,17.748-5.541,16.058C14.928,56.494,21.624,44.304,22.897,45.734z"
   id="path4409" />
	<path
   fill="#C8C92D"
   d="M26.332,47.034c9.322,4.796,1.921,18.272,0.588,16.976C22.755,59.936,24.629,46.153,26.332,47.034z"
   id="path4411" />
	<path
   fill="#C8C92D"
   d="M32.741,47.034c9.323,4.796,1.919,18.272,0.586,16.976C29.165,59.936,31.037,46.153,32.741,47.034z"
   id="path4413" />
	<path
   fill="#C8C92D"
   d="M36.652,47.759c10.438,0.999,8.558,16.261,6.838,15.55C38.113,61.067,34.745,47.573,36.652,47.759z"
   id="path4415" />
	<path
   fill="#C8C92D"
   d="M46.35,42.218c9.96-3.275,14.367,11.455,12.507,11.494C53.031,53.818,44.527,42.814,46.35,42.218z"
   id="path4417" />
	<path
   fill="#74543F"
   d="M56.566,62.562c0.868-14.676-12.96-12.574-12.614-10.136C45.024,60.049,56.408,65.243,56.566,62.562z"
   id="path4419" />
	<path
   fill="#674A3A"
   d="M55.129,33.461c9.671-0.28,9.823,14.195,8.16,13.728C58.093,45.725,53.363,33.509,55.129,33.461z"
   id="path4421" />
	<path
   fill="#674A3A"
   d="M55.129,33.449c9.671,0.282,9.823-14.191,8.16-13.724C58.093,21.189,53.363,33.403,55.129,33.449z"
   id="path4423" />
	<path
   fill="#D5DE2B"
   d="M57.684,39.049c0.195-1.248,0.328-2.516,0.328-3.816c0-14.286-12.269-25.867-27.414-25.867   c-13.536,0-24.751,9.269-26.977,21.444c-0.61,0.326-1.234,0.652-1.85,1.017c-1.364,0.81-1.828,2.442-1.475,3.938   c0.415,1.714,1.145,2.881,2.699,3.803c0.235,0.14,0.45,0.304,0.683,0.454c0.004,0.025-0.123,0.561-0.209,1.323l0,0v0.002   c-0.036,0.29-0.059,0.618-0.071,0.957c-0.004,0.101-0.004,0.198-0.004,0.301c-0.004,0.257,0.004,0.513,0.02,0.777   c0.012,0.129,0.021,0.249,0.04,0.378c0.027,0.258,0.081,0.507,0.142,0.756c0.028,0.114,0.045,0.229,0.083,0.34   c0.112,0.348,0.249,0.681,0.448,0.976c0.918,1.37,2.172,2.507,3.564,3.542c4.893,7.053,13.307,11.727,22.907,11.727   c0.913,0,1.803-0.045,2.684-0.128c0.304-0.027,0.6-0.079,0.9-0.116c0.568-0.071,1.141-0.143,1.704-0.247   c0.361-0.065,0.71-0.154,1.067-0.235c0.48-0.108,0.964-0.215,1.432-0.348c0.39-0.108,0.767-0.234,1.142-0.357   c0.425-0.138,0.845-0.276,1.258-0.432c0.403-0.152,0.792-0.318,1.185-0.486c0.363-0.158,0.725-0.319,1.086-0.493   c0.413-0.199,0.817-0.407,1.217-0.626c0.308-0.166,0.606-0.34,0.904-0.518c0.427-0.255,0.847-0.516,1.258-0.79   c0.241-0.158,0.466-0.325,0.697-0.491c0.448-0.322,0.891-0.646,1.318-0.993c0.145-0.117,0.278-0.241,0.423-0.361   C53.521,50.545,56.724,45.15,57.684,39.049L57.684,39.049L57.684,39.049z"
   id="path4425" />
	<path
   fill="#C8C92D"
   d="M10.853,41.313c-0.031,2.17-0.823,4.175-3.094,5.667c-0.578,0.38-1.187,0.682-1.809,0.944   c0.545,0.507,1.127,0.991,1.742,1.447c4.893,7.053,13.307,11.727,22.907,11.727c0.913,0,1.803-0.045,2.684-0.128   c0.304-0.027,0.6-0.079,0.9-0.116c0.568-0.071,1.141-0.143,1.704-0.247c0.361-0.065,0.71-0.154,1.067-0.235   c0.48-0.108,0.964-0.215,1.432-0.348c0.39-0.108,0.767-0.234,1.142-0.357c0.425-0.138,0.845-0.276,1.258-0.432   c0.403-0.152,0.792-0.318,1.185-0.486c0.363-0.158,0.725-0.319,1.086-0.493c0.413-0.199,0.817-0.407,1.217-0.626   c0.308-0.166,0.606-0.34,0.904-0.518c0.427-0.255,0.847-0.516,1.258-0.79c0.241-0.158,0.466-0.325,0.697-0.491   c0.448-0.322,0.891-0.646,1.318-0.993c0.145-0.117,0.278-0.241,0.423-0.361c4.648-3.932,7.851-9.326,8.811-15.428l0,0   c0.063-0.404,0.108-0.813,0.154-1.22C50.267,45.22,31.896,52.081,10.853,41.313z"
   id="path4427" />
	<path
   fill="#74543F"
   d="M28.746,26.593C19.164,10.67,42.882-2.749,43.678,0.454C46.166,10.477,30.5,29.502,28.746,26.593z"
   id="path4429" />
	<path
   fill="#674A3A"
   d="M17.472,24.153C7,23.557,8.29,8.234,10.033,8.879C15.497,10.909,19.385,24.263,17.472,24.153z"
   id="path4431" />
	<path
   fill="#674A3A"
   d="M11.783,31.2C1.313,30.604,2.601,15.281,4.347,15.927C9.806,17.957,13.696,31.311,11.783,31.2z"
   id="path4433" />
	<path
   fill="#674A3A"
   d="M22.765,21.546C12.448,19.674,15.6,4.625,17.25,5.479C22.426,8.163,24.651,21.89,22.765,21.546z"
   id="path4435" />
	<path
   fill="#674A3A"
   d="M27.145,20.63c-9.423-4.597-2.316-18.231-0.958-16.96C30.442,7.653,28.871,21.471,27.145,20.63z"
   id="path4437" />
	<path
   fill="#74543F"
   d="M42.027,23.402c-5.926-8.648,6.986-16.999,7.539-15.222C51.3,13.743,43.111,24.984,42.027,23.402z"
   id="path4439" />
	<path
   fill="#74543F"
   d="M47.163,28.323c-5.928-8.649,6.984-16.999,7.541-15.222C56.436,18.664,48.249,29.905,47.163,28.323z"
   id="path4441" />
	<path
   fill="#74543F"
   d="M50.344,34.087c-5.924-8.648,6.988-16.999,7.541-15.222C59.616,24.427,51.43,35.669,50.344,34.087z"
   id="path4443" />
	<path
   fill="#74543F"
   d="M30.64,8.096c-13.739,0-25.118,9.721-27.379,22.49c-0.031,0.016-0.061,0.036-0.095,0.055   c2.042,1.201,3.764,2.841,5.28,4.75c2.527-0.288,5.033-0.464,7.596-0.64c8.674-0.59,17.347-0.813,26.03-0.396   c5.32,0.255,10.825,0.516,16.377,0.859C58.445,20.235,45.996,8.096,30.64,8.096z"
   id="path4445" />
	<path
   fill="#674A3A"
   d="M15.459,30.092c-1.751-0.442,8.72-10.378,13.229-21.912C15.84,9.051,5.413,18.429,3.26,30.586   c-0.031,0.016-0.061,0.036-0.095,0.055c2.042,1.201,3.764,2.841,5.28,4.75c2.527-0.288,5.033-0.464,7.596-0.64   c8.674-0.59,17.347-0.813,26.03-0.396c5.32,0.255,10.825,0.516,16.377,0.859c0-3.669-0.76-7.162-2.112-10.353   C32.366,28.576,27.279,33.09,15.459,30.092z"
   id="path4447" />
	<path
   fill="#674A3A"
   d="M52.907,44.234c-6.992-17.341-21.829-12.44-20.453-10.398C36.767,40.214,53.908,46.722,52.907,44.234z"
   id="path4449" />
	<path
   fill="#FFFFFF"
   d="M31.497,24.017c0.105-0.697,0.176-1.414,0.176-2.158c0-5.377-2.904-9.73-6.5-9.73   c-3.588,0-6.5,4.354-6.5,9.73c0,2.036,0.452,3.89,1.171,5.442C23.571,25.73,27.467,24.672,31.497,24.017z"
   id="path4451" />
	<path
   fill="#25333A"
   d="M22.899,26.432c1.912-0.652,3.858-1.185,5.839-1.607c0.401-0.778,0.642-1.688,0.642-2.672   c0-2.815-1.886-5.098-4.208-5.098c-2.322,0-4.204,2.283-4.204,5.098C20.968,23.951,21.743,25.523,22.899,26.432z"
   id="path4453" />
	<path
   fill="#BDBA32"
   d="M3.776,38.127c-0.314-0.16-0.902-0.452-1.258-0.222c-0.344,0.222,0.282,0.668,0.444,0.749   c1.06,0.537,2.758,2.491,1.325,3.463c-0.483,0.328,1.199,1.313,1.706,0.972C8.114,41.649,5.2,38.85,3.776,38.127z"
   id="path4455" />
	<path
   fill="#C8AEA0"
   d="M49.023,18.383c0,3.144-2.844,5.687-6.36,5.687c-3.521,0-6.374-2.543-6.374-5.687   c0-3.14,2.854-5.685,6.374-5.685C46.18,12.698,49.023,15.244,49.023,18.383z"
   id="path4457" />
	<path
   fill="#C8AEA0"
   d="M53.458,24.925c0,1.572-1.424,2.843-3.179,2.843c-1.762,0-3.186-1.271-3.186-2.843   c0-1.57,1.424-2.841,3.186-2.841C52.034,22.083,53.458,23.355,53.458,24.925z"
   id="path4459" />
</g>
</svg>
